!!!OTL: 385. Erste Liebe. / Mel. : "An Alexis send' ich".
!!!ODT: 1892
!!!ARE: Europa, Mitteleuropa, Deutschland
!!!SCT: B0385
!!!TXL: @@DE
!!!YEM: Copyright 1995, estate of Helmut Schaffrath.
**kern	**text
*ICvox	*
*Ivox	*
*clefG2	*
*M3/4	*
*k[f#c#g#]	*
*A:	*
!LO:TX:a:t=Mäßig bewegt.	!
{8.cc#	Von
16dd	der
=1	=1
4cc#	Al-
4b	-pen
8.b	ſtei-
16cc#	-len
=2	=2
4b/	Hö-
4a}	-hen
{8.a	ſoll
16b/	der
=3	=3
(4a	Strom
8g#)	.
8e	ſich
8f#	nicht
8g#	er-
=4	=4
(4b/	-gie-
4a)}	-ßen,
{8.cc#	ſoll
16dd	ʒu-
=5	=5
4cc#	-rück
4b	ʒur
8.b	Quel-
16cc#	-le
=6	=6
4b/	flie-
4a}	-ßen,
{8.a	denn
16b	mein
=7	=7
(4a	Herʒ
8g#)	.
8e	iſt
8f#	nicht
8g#	mehr
=8	=8
(4b/	mein.
4a)}	.
{8.cc#	E-
16cc#	-her
=9	=9
4.b	ſoll
8b	die
8cc#	Sonn'
8dd#	er-
=10	=10
4ff#	-blaſ-
4ee}	-ſen
{8.b	und
16b	ihr
=11	=11
4.aa	Strahl
8b	ſoll
8cc#	nicht
8dd#	mehr
=12	=12
4ee	glühn,
8r}	.
{4ee	eh'
8ff#	ich.
=13	=13
8.eeL	Theu-
16ddJ	.
4b	-re,
8dd	dich
8ee	ver-
=14	=14
8.ddL	-laſ-
16cc#J	.
4a}	-ſe,
{8cc#	eh-
8dd	-er
=15	=15
(4cc#	wach-
8b)	.
8e	-ſen
8f#	mei-
8g#	-ne
=16	=16
(4b/	Trie-
8a)}	-be,
{8cc#	denn
8ee	du
8ff#	warſt
=17	=17
8.eeL	mei-
16ddJ	.
4b	-ne
8dd	er-
8ee	-ſte
=18	=18
8.ddL	Lie-
16cc#J	.
4a}	-be,
{8cc#	mei-
8dd	-ne
=19	=19
(4cc#	letʒ-
8b)	.
8e	-te
8f#	ſollſt
8g#	du
=20	=20
4a	ſein!
4r}	.
==	==
!!!AGN: Liebes - Lied, Liebes - Lust
!!!GTL: Liebeslieder - Liebeslust
!!!ONB: ESAC (Essen Associative Code) Database: BOEHME
!!!AMT: simple triple
!!!AIN: vox
!!!EED: Helmut Schaffrath
!!!EEV: 1.0
!!Mel. mehrfach vom Rhein. 1892.
!!@@COMMENT:"Das iſt die Mel. des Liedes C. A. v. Tiedge 1812: "An Aleris ſend' ich dich" et.
!!komponirt von Himmel 1814, aber etwas verändert und vereinfacht. Mit dieſem Texte von erſter
!!Liebe wird ſie am Rhein noch viel geſungen; ʒiemlich gleich im Naſſauerlande 1890; im Elſaß
!!fand ich 1889 den erſten und dritten Satʒ der Mel. mit Terʒen überhaut, ſo daß die urſprüngliche Weiſe in die 2. Stimme kam."
!!@@END:
!!!Text: C. A. Tiedge
!!!URL-scan: https://archive.org/details/BoehmeVtLieder1895/page/n321/mode/2up
!!!ENC: Anna Maria Matuszewska
!!!EEV: 2024/08/07
*-	*-
